X:1
T:Heruvimskaia pesn
T:Alexei Fjodorovitsj Lvov/Алексей Фёдорович Львов
%%score [ ( 1 2 ) ( 3 4 ) 5 ( 6 7 ) ]
L:1/8
Q:1/4=40
M:3/4
K:G
V:1 treble nm="S"
V:2 treble 
V:3 treble nm="A"
V:4 treble 
V:5 treble-8 nm="T"
V:6 bass nm="B"
V:7 bass 
V:1
"^Adagio" (B2 c2) B2 | (B2 A2) A2 | G4 G2 | (G2 F2) B2 | (B2 AG) F2 | F4 F2 | E6 | (E4 A)G | %8
w: I- * zhe|he- * ru-|vi- mi|tai- * no|ob- * * ra-|zu- iu-|shte,|ob- * ra-|
 (G2 F2) E2 | F4 z2 || (B2 c2) B2 | (B2 A2) A2 | G4 G2 | (G2 F2) B2 | (B2 AG) F2 | F4 F2 | E6 | %17
w: zu- * iu-|shte,|i _ zhi-|vo- * tvo-|ria- shtei|Troi- * tse,|tri- * * svia-|tu- iu|pesn|
 (E4 A)G | (G2 F2) E2 | F4 z2 || B2 c2 B2 | B2 A2 A2 | G4 d2 | d2 c2 B2 | A6 | (A2 B2) A2 | (G6- | %27
w: pri- * pe-|va- * iu-|shte.|Vsia- ko- e|ni- ne zhi-|tei- sko-|e ot- lo-|zhim|po- * pe-|che-|
 G2 FE) F2 | G6- | G4 z2 |][M:4/4][Q:1/4=80]"^Allegretto" z8 | g3 g f2 =f2 | e4 e2 c2 | %33
w: * * * ni-|e.|_||Ia- ko da Tsa-|ria vseh pod-|
 (A2 B2 A2 G2) | F2 z2 z4 | (B2 d2) d2 g2 | (g2 f2 e2) d2 | d6 =f2 | (=f2 e2 d2) c2 | %39
w: i- * * *|mem,|an- * gel- ski-|mi _ _ ne-|vi- di-|mo _ _ do-|
 (e2 d2 c2) B2 | (d2 c2) (B2 A2) | (=G8- | G2 FE F4) | G2 z2 z4 | g3 g f2 =f2 | (e=fe) d (cdc) B | %46
w: ri- * * no-|si- * ma _|chin-||mi.|Al- li- lu- ia,|al- * * li- lu- * * ia,|
 (A4 B2) B2 | (A8- | A4 B2 c2) | B8 |] %50
w: al- * li-|lu-||ia.|
V:2
 x6 | x6 | x6 | x6 | x6 | x6 | x6 | x6 | x6 | x6 || x6 | x6 | x6 | x6 | x6 | x6 | x6 | x6 | x6 | %19
 x6 || x6 | x6 | x6 | x6 | x6 | x6 | x6 | x6 | x6 | x6 |][M:4/4] x8 | x8 | x8 | x8 | x8 | x8 | x8 | %37
 x8 | d6 c2 | c6 B2 | (B2 A2) (^G2 A2) | x8 | x8 | x8 | x8 | x8 | x8 | x8 | x8 | x8 |] %50
V:3
 G4 G2 | F4 F2 | (F2 E2) E2 | E4 E2 | E4 (FE) | D4 D2 | D6 | (D2 ^CB,) C2 | D4 D2 | D4 z2 || %10
w: I- zhe|he- ru-|vi- * mi|tai- no|ob- ra- *|zu- iu-|shte,|ob- * * ra-|zu- iu-|shte,|
 G4 G2 | F4 F2 | (F2 E2) E2 | E4 E2 | E4 (FE) | D4 D2 | D6 | (D2 ^CB,) C2 | D4 D2 | D4 z2 || %20
w: i zhi-|vo- tvo-|ria- * shtei|Troi- tse,|tri- svia- *|tu- iu|pesn|pri- * * pe-|va- iu-|shte.|
 G2 G2 G2 | F2 F2 F2 | (D2 G2) G2 | ^G2 A2 G2 | (A2 =F2 E2) | (_E2 D2) =E2 | (D2 B,2 D2 | C4 DC | %28
w: Vsia- ko- e|ni- ne zhi-|tei- * sko-|e ot- lo-|zhim _ _|po- * pe-|che- * *||
 [B,D]4) [CE]2 | [B,D]4 z2 |][M:4/4] B3 B A2 B2 | c2 (G2 A2) B2 | (c2 G2) E2 E2 | (D4 F2 E2) | %34
w: * ni-|e.|Ia- ko da Tsa-|ria vseh _ pod-|i- * mem, pod-|i- * *|
 D2 z2 [Fc]2 [Fc] [Fc] | [GB]8 | c2 c c c2 c2 | (B2 c2 d2) c2 | B4 A4 | A4 G4 | (^G2 A2) E4 | %41
w: mem, an- gel- ski-|mi,|an- gel- ski- mi ne-|vi- * * di-|mo do-|ri- no-|si- * ma|
 (D2 B,2 C2 D2 | C6 DC) | B, (GB) c d3 d | (edce A2) (Bd) | (cdcB A^GA) =G | (F4 G2) G2 | %47
w: chin- * * *||mi. Al- * li- lu- ia,|al- * * * * li- *|lu- * * * * * * ia,|al- * li-|
 (G2 FE F4- | F4 G2 [DF]2) | [DG]8 |] %50
w: lu- * * *||ia.|
V:4
 x6 | x6 | x6 | x6 | x6 | x6 | x6 | x6 | x6 | x6 || x6 | x6 | x6 | x6 | x6 | x6 | x6 | x6 | x6 | %19
 x6 || x6 | x6 | x6 | x6 | x6 | x6 | x6 | x6 | x6 | x6 |][M:4/4] x8 | x8 | x8 | x8 | x8 | x8 | %36
 A2 A A A2 A2 | (G2 A2 B2) A2 | ^G4 A4 | F4 G4 | E4 E4 | x8 | x8 | x8 | x8 | x8 | x8 | x8 | x8 | %49
 x8 |] %50
V:5
 (d2 e2) d2 | c4 c2 | B4 B2 | A4 B2 | ^c4 c2 | (^c2 B2) B2 | (B4 _B2) | A4 A2 | A4 G2 | A4 z2 || %10
w: I- * zhe|he- ru-|vi- mi|tai- no|ob- ra-|zu- * iu-|shte, _|ob- ra-|zu- iu-|shte,|
 (d2 e2) d2 | c4 c2 | B4 B2 | A4 B2 | ^c4 c2 | (^c2 B2) B2 | (B4 _B2) | A4 A2 | A4 G2 | A4 z2 || %20
w: i _ zhi-|vo- tvo-|ria- shtei|Troi- tse,|tri- svia-|tu- * iu|pesn _|pri- pe-|va- iu-|shte.|
 d2 e2 d2 | c2 c2 c2 | (c2 B2) B2 | B2 e2 d2 | (c4 ^c2) | (=c2 B2) G2 | (B2 G2 B2 | A4) A2 | G6- | %29
w: Vsia- ko- e|ni- ne zhi-|tei- * sko-|e ot- lo-|zhim _|po- * pe-|che- * *|* ni-|e.|
 G4 z2 |][M:4/4] z4 d3 d | c2 c2 (c2 d2) | e2 e2 c4 | c2 B2 (c2 [_B^c]2) | [Ad]2 z2 z4 | z8 | z8 | %37
w: _|Ia- ko|da Tsa- ria _|vesh pod- i-|mem, pod- i- *|mem,|||
 d2 dd d2 d2 | e6 e2 | d6 d2 | (e4 d2) c2 | (B2 G2) (A2 B2) | A8 | G2 z2 z (Ad) B | (cde) c d3 B | %45
w: an- gel- ski- mi ne-|vi- di-|mo do-|ri- * no-|si- * ma _|chin-|mi. Al- * li-|lu- * * ia, al- li-|
 (cBcd ed) e2 | d6 d2 | (c6 dc- | c4 B2 A2) | G8 |] %50
w: lu- * * * * * ia,|al- li-|lu- * *||ia.|
V:6
 [G,,G,]4 [G,,G,]2 | [D,,D,]4 [^D,,^D,]2 | [E,,E,]4 [=D,,=D,]2 | ([^C,,^C,]2 [D,,D,]2) [G,,G,]2 | %4
w: I- zhe|he- ru-|vi- mi|tai- * no|
 (A,2 A,,2) ^A,,2 | B,,4 =A,,2 | G,,6 | A,,4 A,,2 | [D,,D,]4 [D,,D,]2 | [D,,D,]4 z2 || %10
w: ob- * ra-|zu- iu-|shte,|ob- ra-|zu- iu-|shte,|
 [G,,G,]4 [G,,G,]2 | [D,,D,]4 [^D,,^D,]2 | [E,,E,]4 [=D,,=D,]2 | ([^C,,^C,]2 [D,,D,]2) [G,,G,]2 | %14
w: i zhi-|vo- tvo-|ria- shtei|Troi- * tse,|
 (A,2 A,,2) ^A,,2 | B,,4 =A,,2 | G,,6 | A,,4 A,,2 | [D,,D,]4 [D,,D,]2 | [D,,D,]4 z2 || %20
w: tri- * svia-|tu- iu|pesn|pri- pe-|va- iu-|shte.|
 [G,,G,]2 [G,,G,]2 [G,,G,]2 | [G,,G,]2 [G,,G,]2 [G,,G,]2 | [G,,G,]4 [=F,,=F,]2 | %23
w: Vsia- ko- e|ni- ne zhi-|tei- sko-|
 [E,,E,]2 [E,,E,]2 [E,,E,]2 | ([=F,,=F,]2 [A,,A,]2 [G,,G,]2) | ([^F,,^F,]2 [G,,G,]2) [C,,C,]2 | %26
w: e ot- lo-|zhim _ _|po- * pe-|
 ([D,,D,]6 | [D,,D,]4) [D,,D,]2 | G,,6- | G,,4 z2 |][M:4/4] G,3 G, F,2 =F,2 | E,4 D,2 G,2 | %32
w: che-|* ni-|e.|_|Ia- ko da Tsa-|ria vseh pod-|
 (C6 A,2) | F,2 G,2 D,4 | [D,,D,]2 [D,,D,] [D,,D,] [D,,D,]4 | [D,,D,]4 [D,,D,]2 [D,,D,] [D,,D,] | %36
w: i- *|mem, pod- i-|mem, vseh pod- i-|mem, an- gel- ski-|
 [D,,D,]6 [D,,D,]2 | [D,,D,]6 [D,,D,]2 | [D,,D,]6 [D,,D,]2 | [D,,D,]6 [D,,D,]2 | %40
w: mi ne-|vi- di-|mo do-|ri- no-|
 ([C,,C,]2 A,,2) (B,,2 C,2) | D,8 | [D,,D,]8 | G,3 G, F,2 =F,2 | (E,4 D,2) G,2 | %45
w: si- * ma _|chin-|mi.|Al- li- lu- ia,|al- * li-|
 ([C,-C]4 [C,C][B,,B,][C,C]) [^C,^C] | ([D,D]4 [B,,B,]2) [G,,G,]2 | (D,8 | G,,8) | G,,8 |] %50
w: lu- * * * ia,|al- * li-|lu-||ia.|
V:7
 x6 | x6 | x6 | x6 | A,,4 ^A,,2 | x6 | x6 | x6 | x6 | x6 || x6 | x6 | x6 | x6 | A,,4 ^A,,2 | x6 | %16
 x6 | x6 | x6 | x6 || x6 | x6 | x6 | x6 | x6 | x6 | x6 | x6 | x6 | x6 |][M:4/4] x8 | x8 | x8 | x8 | %34
 x8 | x8 | x8 | x8 | x8 | x8 | x8 | x8 | x8 | x8 | x8 | x8 | x8 | D,,8 | G,,8 | x8 |] %50

